icons/ArrowCornerDownRight.svg

<svg width="24" height="24" viewBox="0 0 24 24" fill="none" xmlns="http://www.w3.org/2000/svg">
<path fill-rule="evenodd" clip-rule="evenodd" d="M19.5303,15.4697c0.2929,0.2929 0.2929,0.7677 0,1.0606l-4,4c-0.2929,0.2929 -0.7677,0.2929 -1.0606,0c-0.2929,-0.2929 -0.2929,-0.7677 0,-1.0606l2.7196,-2.7197h-9.6893c-1.51878,0 -2.75,-1.2312 -2.75,-2.75v-11c0,-0.41421 0.33579,-0.75 0.75,-0.75c0.41421,0 0.75,0.33579 0.75,0.75v11c0,0.6904 0.55964,1.25 1.25,1.25h9.6893l-2.7196,-2.7197c-0.2929,-0.2929 -0.2929,-0.7677 0,-1.0606c0.2929,-0.2929 0.7677,-0.2929 1.0606,0z" fill="#002B51"/>
</svg>

<svg width="24" height="24" viewBox="0 0 24 24" fill="none" xmlns="http://www.w3.org/2000/svg">
<path fill-rule="evenodd" clip-rule="evenodd" d="M19.5303 15.4697C19.8232 15.7626 19.8232 16.2374 19.5303 16.5303L15.5303 20.5303C15.2374 20.8232 14.7626 20.8232 14.4697 20.5303C14.1768 20.2374 14.1768 19.7626 14.4697 19.4697L17.1893 16.75H7.5C5.98122 16.75 4.75 15.5188 4.75 14V3C4.75 2.58579 5.08579 2.25 5.5 2.25C5.91421 2.25 6.25 2.58579 6.25 3V14C6.25 14.6904 6.80964 15.25 7.5 15.25H17.1893L14.4697 12.5303C14.1768 12.2374 14.1768 11.7626 14.4697 11.4697C14.7626 11.1768 15.2374 11.1768 15.5303 11.4697L19.5303 15.4697Z" fill="#002B51"/>
</svg>
